Project/img/BOOK.svg

<svg xmlns="http://www.w3.org/2000/svg" xmlns:xlink="http://www.w3.org/1999/xlink" preserveAspectRatio="xMidYMid" width="32" height="32" viewBox="0 0 32 32">
  <defs>
    <style>
      .cls-1 {
        fill: #95e1d3;
        fill-rule: evenodd;
      }
    </style>
  </defs>
  <path d="M31.065,25.889 L16.594,31.877 C16.412,31.956 16.211,32.000 16.000,32.000 C15.789,32.000 15.588,31.956 15.406,31.877 L0.935,25.889 C0.387,25.666 -0.000,25.128 -0.000,24.500 L-0.000,1.500 C-0.000,0.671 0.672,0.000 1.500,0.000 C1.703,0.000 1.897,0.041 2.073,0.114 L2.074,0.114 L2.076,0.115 C2.080,0.116 2.085,0.119 2.089,0.120 L16.000,5.877 L29.911,0.120 C29.915,0.119 29.920,0.116 29.924,0.115 L29.927,0.114 L29.927,0.114 C30.103,0.041 30.297,0.000 30.500,0.000 C31.328,0.000 32.000,0.671 32.000,1.500 L32.000,24.500 C32.000,25.128 31.613,25.666 31.065,25.889 ZM14.500,8.503 L3.000,3.744 L3.000,23.497 L14.500,28.256 L14.500,8.503 ZM29.000,3.744 L17.500,8.503 L17.500,28.256 L29.000,23.497 L29.000,3.744 ZM19.879,10.634 L25.379,8.134 L25.379,8.134 C25.568,8.048 25.778,8.000 26.000,8.000 C26.828,8.000 27.500,8.671 27.500,9.500 C27.500,10.107 27.139,10.629 26.621,10.865 L26.621,10.865 L21.121,13.365 L21.121,13.365 C20.931,13.452 20.721,13.500 20.500,13.500 C19.672,13.500 19.000,12.828 19.000,12.000 C19.000,11.393 19.361,10.870 19.879,10.634 ZM19.879,16.134 L19.879,16.134 L25.379,13.634 L25.379,13.634 C25.568,13.548 25.778,13.500 26.000,13.500 C26.828,13.500 27.500,14.171 27.500,15.000 C27.500,15.607 27.139,16.129 26.621,16.365 L21.121,18.866 L21.121,18.865 C20.931,18.951 20.721,19.000 20.500,19.000 C19.672,19.000 19.000,18.328 19.000,17.500 C19.000,16.893 19.361,16.371 19.879,16.134 ZM19.879,21.634 L19.879,21.634 L25.379,19.134 L25.379,19.134 C25.568,19.048 25.778,19.000 26.000,19.000 C26.828,19.000 27.500,19.671 27.500,20.500 C27.500,21.107 27.139,21.629 26.621,21.865 L26.621,21.865 L21.121,24.365 L21.121,24.365 C20.931,24.452 20.721,24.500 20.500,24.500 C19.672,24.500 19.000,23.828 19.000,23.000 C19.000,22.393 19.361,21.870 19.879,21.634 ZM6.000,8.000 C6.221,8.000 6.431,8.048 6.621,8.134 L6.621,8.134 L12.121,10.634 L12.121,10.634 C12.639,10.870 13.000,11.393 13.000,12.000 C13.000,12.828 12.328,13.500 11.500,13.500 C11.278,13.500 11.068,13.452 10.879,13.365 L10.879,13.365 L5.379,10.865 L5.379,10.865 C4.861,10.629 4.500,10.107 4.500,9.500 C4.500,8.671 5.172,8.000 6.000,8.000 ZM6.000,13.500 C6.221,13.500 6.431,13.548 6.621,13.634 L6.621,13.634 L12.121,16.134 L12.121,16.134 C12.639,16.371 13.000,16.893 13.000,17.500 C13.000,18.328 12.328,19.000 11.500,19.000 C11.278,19.000 11.068,18.951 10.879,18.865 L10.879,18.866 L5.379,16.365 L5.379,16.365 C4.861,16.129 4.500,15.607 4.500,15.000 C4.500,14.171 5.172,13.500 6.000,13.500 ZM6.000,19.000 C6.221,19.000 6.431,19.048 6.621,19.134 L6.621,19.134 L12.121,21.634 L12.121,21.634 C12.639,21.870 13.000,22.393 13.000,23.000 C13.000,23.828 12.328,24.500 11.500,24.500 C11.278,24.500 11.068,24.452 10.879,24.365 L10.879,24.365 L5.379,21.865 L5.379,21.865 C4.861,21.629 4.500,21.107 4.500,20.500 C4.500,19.671 5.172,19.000 6.000,19.000 Z" class="cls-1"/>
</svg>

<svg xmlns="http://www.w3.org/2000/svg" width="32" height="32" preserveAspectRatio="xMidYMid"><defs><style>.cls-1 { fill: #95e1d3; fill-rule: evenodd; }</style></defs><path d="M31.07 25.9l-14.48 5.98c-.2.08-.4.12-.6.12-.2 0-.4-.04-.6-.12l-14.46-6C.4 25.7 0 25.14 0 24.5v-23C0 .67.67 0 1.5 0c.2 0 .4.04.57.1 0 .02.02.02.02.02L16 5.88 29.9.12c.02 0 .02 0 .02 0 .18-.08.38-.12.58-.12.83 0 1.5.67 1.5 1.5v23c0 .63-.4 1.17-.93 1.4zM14.5 8.5L3 3.74V23.5l11.5 4.76V8.5zM29 3.74L17.5 8.5v19.76L29 23.5V3.74zm-9.12 6.9l5.5-2.5c.2-.1.4-.14.62-.14.83 0 1.5.67 1.5 1.5 0 .6-.36 1.13-.88 1.37l-5.5 2.5c-.2.08-.4.13-.62.13-.83 0-1.5-.67-1.5-1.5 0-.6.36-1.13.88-1.37zm0 5.5l5.5-2.5c.2-.1.4-.14.62-.14.83 0 1.5.67 1.5 1.5 0 .6-.36 1.13-.88 1.36l-5.5 2.5c-.2.1-.4.14-.62.14-.83 0-1.5-.67-1.5-1.5 0-.6.36-1.13.88-1.37zm0 5.5l5.5-2.5c.2-.1.4-.14.62-.14.83 0 1.5.67 1.5 1.5 0 .6-.36 1.13-.88 1.36l-5.5 2.5c-.2.1-.4.14-.62.14-.83 0-1.5-.67-1.5-1.5 0-.6.36-1.13.88-1.37zM6 8c.22 0 .43.05.62.13l5.5 2.5c.52.24.88.76.88 1.37 0 .83-.67 1.5-1.5 1.5-.22 0-.43-.05-.62-.13l-5.5-2.5c-.52-.24-.88-.76-.88-1.37C4.5 8.67 5.17 8 6 8zm0 5.5c.22 0 .43.05.62.13l5.5 2.5c.52.24.88.76.88 1.37 0 .83-.67 1.5-1.5 1.5-.22 0-.43-.05-.62-.14l-5.5-2.5c-.52-.23-.88-.75-.88-1.36 0-.83.67-1.5 1.5-1.5zM6 19c.22 0 .43.05.62.13l5.5 2.5c.52.24.88.76.88 1.37 0 .83-.67 1.5-1.5 1.5-.22 0-.43-.05-.62-.14l-5.5-2.5c-.52-.23-.88-.75-.88-1.36 0-.83.67-1.5 1.5-1.5z" class="cls-1"/></svg>
